X:161
T:Girl from the Big House, The
T:Cail\'in an T\'i M\'or
R:jig
D:Sean Keane: Jig It in Style
D:Declan Masterson:
Z:id:hn-jig-161
M:6/8
K:Dmix
AG|F2D DAG|AGA GEA|~D3 AGE|FDA D2E|~F3 GFG|AGA cde|d2A GEA|~D3 D:|
|:AB|c2A AGF|DGG DGG|AdB cAG|Adc d2e|fed cAG|F2A GEc|d2A GEA|~D3 D:|
